X:1
T:Galway Hornpipe
L:1/8
Q:1/8=232
M:4/4
I:linebreak $
K:D
V:1 treble 
V:1
|: A2 | D2 FA dA FD | CD EF G2 FE | D2 FA dc df | ed cB AG FE | D2 FA dA FD |$ CD EF G2 FG | %7
 Ad cB AG FE | D2 F2 D2 :: de | fe fg fe dc | B^A Bc B2 cd |$ e^d ef e=d cB | AA ce aA Bc | %14
 dc de fd AF | GF GA Bd cB | Ad cB Ag ec | d2 f2 d2 :| %18
